!!!COM: Felix Mendelssohn
!!!CNT: Deutsch
!!!TXO: Deutsch
!!!OTL: Gruss
!!!LYR: Heine
!!!OPS: Op. 19
!!!ONM: No. 5
!!!ENC: Daniel Alt & Leigh VanHandel
!!!YOR: Sa2mmtliche Lieder fu2r eine Singstimme
!!!YOR: Neu revidirt von Dr. L. Benda, Ausgabe fu2r mittlere Stimme
!!!YOR: Braunschweig. Henry Litolff's Verlag. Boston and New York: Arthur P. Schmidt.
!!!ODT: 1832/
**kern	**silbe
*staff1	*
=1-	=1
*clefG2	*
*k[]	*
*M2/4	*
2r	.
=2	=2
2r	.
=3	=3
2r	.
=4	=4
2r	.
=5	=5
{8g	{Lei-
8e	-se
8g	zieht
8e	durch
=6	=6
8f	mein
8g	Ge-
4a}	-mu2th}
=7	=7
{8cc	{lieb-
8b	-li-
8cc	-ches
8a	Ge-
=8	=8
4g	-la2u-
8e}	-te;}
8r	.
=9	=9
{8a	{klin-
8e	-ge,
8d-	klei-
8e	-nes
=10	=10
8a	Fru2h-
8e	-lings-
4f}	-lied,}
=11	=11
{8g	{kling'
8a	hin-
8b	-aus
8cc	in's
=12	=12
4ee	Wei-
4dd	|
=13	=13
4cc}	-te.}
4r	.
==	==
*-	*-